icons/evolvere-blue-folders-flat-vivid-dark-fallback/apps/64/kdiamond.svg

<?xml version="1.0" encoding="UTF-8" standalone="no"?>
<!-- Created with Inkscape (http://www.inkscape.org/) -->

<svg
   xmlns:dc="http://purl.org/dc/elements/1.1/"
   xmlns:cc="http://creativecommons.org/ns#"
   xmlns:rdf="http://www.w3.org/1999/02/22-rdf-syntax-ns#"
   xmlns:svg="http://www.w3.org/2000/svg"
   xmlns="http://www.w3.org/2000/svg"
   xmlns:sodipodi="http://sodipodi.sourceforge.net/DTD/sodipodi-0.dtd"
   xmlns:inkscape="http://www.inkscape.org/namespaces/inkscape"
   width="64"
   height="64"
   id="svg13094"
   version="1.1"
   inkscape:version="0.91+devel r"
   sodipodi:docname="kdiamond.svg">
  <sodipodi:namedview
     id="base"
     pagecolor="#ffffff"
     bordercolor="#666666"
     borderopacity="1.0"
     inkscape:pageopacity="0"
     inkscape:pageshadow="2"
     inkscape:zoom="11.313709"
     inkscape:cx="24.051911"
     inkscape:cy="30.577915"
     inkscape:document-units="px"
     inkscape:current-layer="svg13094"
     showgrid="true"
     inkscape:snap-bbox="true"
     inkscape:bbox-paths="true"
     inkscape:bbox-nodes="true"
     inkscape:snap-bbox-edge-midpoints="true"
     inkscape:snap-bbox-midpoints="true"
     inkscape:object-paths="true"
     inkscape:snap-intersection-paths="true"
     inkscape:object-nodes="true"
     inkscape:snap-smooth-nodes="true"
     inkscape:snap-midpoints="true"
     inkscape:snap-object-midpoints="true"
     inkscape:snap-center="true"
     showguides="true"
     inkscape:guide-bbox="true"
     inkscape:window-width="1920"
     inkscape:window-height="1023"
     inkscape:window-x="-10"
     inkscape:window-y="35"
     inkscape:window-maximized="1"
     inkscape:snap-global="true"
     fit-margin-top="0"
     fit-margin-left="0"
     fit-margin-right="0"
     fit-margin-bottom="0"
     showborder="true"
     inkscape:showpageshadow="false"
     inkscape:snap-page="true">
    <inkscape:grid
       type="xygrid"
       id="grid3075"
       empspacing="5"
       visible="true"
       enabled="true"
       snapvisiblegridlinesonly="true"
       originx="1.6362304e-08px"
       originy="18px" />
  </sodipodi:namedview>
  <defs
     id="defs13096" />
  <metadata
     id="metadata13099">
    <rdf:RDF>
      <cc:Work
         rdf:about="">
        <dc:format>image/svg+xml</dc:format>
        <dc:type
           rdf:resource="http://purl.org/dc/dcmitype/StillImage" />
        <dc:title></dc:title>
      </cc:Work>
    </rdf:RDF>
  </metadata>
  <path
     inkscape:connector-curvature="0"
     style="color:#000000;display:inline;overflow:visible;visibility:visible;opacity:1;fill:#3b577a;fill-opacity:1;fill-rule:nonzero;stroke:none;stroke-width:1;stroke-linecap:butt;stroke-linejoin:miter;stroke-miterlimit:4;stroke-dasharray:none;stroke-dashoffset:0;stroke-opacity:1;marker:none;enable-background:accumulate"
     d="m 0,4 0,30 0,28 2,2 30,0 30,0 2,-2 L 64,34 64,4 32,4 0,4 Z"
     id="path4095" />
  <path
     inkscape:connector-curvature="0"
     style="color:#000000;display:inline;overflow:visible;visibility:visible;opacity:1;fill:#668cbb;fill-opacity:1;fill-rule:nonzero;stroke:none;stroke-width:2.28571415;stroke-linecap:butt;stroke-linejoin:miter;stroke-miterlimit:4;stroke-dasharray:none;stroke-dashoffset:0;stroke-opacity:1;marker:none;enable-background:accumulate"
     d="M 2,0 0,1 0,4 32,4 64,4 64,1 62,0 32,0 2,0 Z"
     id="path4090" />
  <path
     inkscape:connector-curvature="0"
     style="opacity:1;fill:#729bcd;fill-opacity:1;fill-rule:nonzero;stroke-width:1;stroke-linecap:butt;stroke-linejoin:miter;stroke-miterlimit:4;stroke-dasharray:none;stroke-dashoffset:0;stroke-opacity:1"
     d="M 0,3 0,6 2,4 Z"
     id="path4298"
     sodipodi:nodetypes="cccc" />
  <path
     d="M 64,6 62,4 64,3 Z"
     id="path3028"
     style="opacity:1;fill:#4f6f97;fill-opacity:1;stroke:none;stroke-width:0.62299293;stroke-linecap:butt;stroke-linejoin:miter;stroke-miterlimit:4;stroke-dasharray:none;stroke-dashoffset:0;stroke-opacity:1;marker:none"
     inkscape:connector-curvature="0" />
  <g
     id="g3043"
     inkscape:export-filename="folder.png"
     inkscape:export-xdpi="90"
     inkscape:export-ydpi="90"
     transform="translate(-0.62500009,0.082283)" />
  <g
     id="scalable"
     transform="matrix(1.0385892,0,0,1.0385892,1214.7222,1878.8121)"
     inkscape:label="#g3701"
     style="fill:#ffffff" />
  <path
     style="color:#000000;font-style:normal;font-variant:normal;font-weight:normal;font-stretch:normal;font-size:medium;line-height:normal;font-family:sans-serif;text-indent:0;text-align:start;text-decoration:none;text-decoration-line:none;text-decoration-style:solid;text-decoration-color:#000000;letter-spacing:normal;word-spacing:normal;text-transform:none;direction:ltr;block-progression:tb;writing-mode:lr-tb;baseline-shift:baseline;text-anchor:start;white-space:normal;shape-padding:0;clip-rule:nonzero;display:inline;overflow:visible;visibility:visible;opacity:1;isolation:auto;mix-blend-mode:normal;color-interpolation:sRGB;color-interpolation-filters:linearRGB;solid-color:#000000;solid-opacity:1;fill:#d7ebfa;fill-opacity:1;fill-rule:nonzero;stroke:none;stroke-width:2;stroke-linecap:round;stroke-linejoin:round;stroke-miterlimit:4;stroke-dasharray:none;stroke-dashoffset:0;stroke-opacity:1;marker:none;color-rendering:auto;image-rendering:auto;shape-rendering:auto;text-rendering:auto;enable-background:accumulate"
     d="M 32 15.558594 C 27.7415 15.558594 22.575687 15.781667 18.5 18.134766 C 13.913487 20.78279 10 25.37554 10 31 A 1.0001 1.0001 0 0 0 10.292969 31.707031 L 31.150391 52.564453 A 1.0001 1.0001 0 0 0 32.005859 53.013672 A 1.0001 1.0001 0 0 0 32.007812 53.013672 A 1.0001 1.0001 0 0 0 32.009766 53.013672 A 1.0001 1.0001 0 0 0 32.013672 53.013672 A 1.0001 1.0001 0 0 0 32.853516 52.560547 L 53.707031 31.707031 A 1.0001 1.0001 0 0 0 54 31 C 54 25.37554 50.086513 20.78279 45.5 18.134766 C 41.445817 15.794082 36.315812 15.562941 32.070312 15.560547 A 1.0001 1.0001 0 0 0 32 15.558594 z M 32 17.558594 C 35.770941 17.558594 40.083289 17.819185 43.443359 19.34375 C 43.866429 19.583945 44.239281 19.831341 44.535156 20.085938 C 45.197738 20.656079 45.5 21.213182 45.5 21.75 C 45.5 22.286818 45.197738 22.84392 44.535156 23.414062 C 43.872575 23.984206 42.869127 24.53312 41.623047 24.994141 C 39.130887 25.916182 35.675864 26.5 32 26.5 C 28.324136 26.5 24.869113 25.916182 22.376953 24.994141 C 21.130873 24.53312 20.127425 23.984205 19.464844 23.414062 C 18.802262 22.84392 18.5 22.286818 18.5 21.75 C 18.5 21.213182 18.802262 20.65608 19.464844 20.085938 C 19.760719 19.831341 20.133571 19.583945 20.556641 19.34375 C 23.916711 17.819185 28.229059 17.558594 32 17.558594 z M 17.384766 21.320312 C 16.180458 25.196341 15.935166 29.534493 15.595703 33.78125 C 14.283456 32.838912 13.100316 31.757189 12.072266 30.535156 C 12.249865 26.883485 14.42343 23.648955 17.384766 21.320312 z M 46.615234 21.320312 C 49.57657 23.648955 51.750135 26.883485 51.927734 30.535156 C 50.899684 31.757189 49.716544 32.838912 48.404297 33.78125 C 48.064834 29.534493 47.819542 25.196341 46.615234 21.320312 z M 17.921875 23.138672 C 18.146679 23.508444 18.445014 23.855658 18.8125 24.171875 C 19.609794 24.857935 20.707477 25.442598 22.029297 25.931641 C 22.810583 26.220698 23.67791 26.471412 24.599609 26.6875 L 16.607422 33.792969 C 16.90176 30.126992 17.128888 26.450705 17.921875 23.138672 z M 46.078125 23.138672 C 46.871112 26.450705 47.09824 30.126992 47.392578 33.792969 L 39.400391 26.6875 C 40.32209 26.471412 41.189417 26.220698 41.970703 25.931641 C 43.292523 25.442598 44.390206 24.857935 45.1875 24.171875 C 45.554986 23.855658 45.853321 23.508444 46.078125 23.138672 z M 25.513672 26.886719 C 27.489918 27.278161 29.699501 27.5 32 27.5 A 0.50005 0.50005 0 0 0 32.050781 27.498047 C 34.332918 27.49483 36.524748 27.275256 38.486328 26.886719 L 32 38.007812 L 25.513672 26.886719 z M 24.875 27.779297 L 31.119141 38.480469 C 28.772853 38.424225 26.500817 38.150563 24.355469 37.646484 A 0.50005 0.50005 0 0 0 23.978516 37.494141 A 0.50005 0.50005 0 0 0 23.849609 37.515625 C 21.38029 36.888699 19.088496 35.960247 17.048828 34.734375 L 24.875 27.779297 z M 39.125 27.779297 L 46.951172 34.734375 C 44.911371 35.960327 42.619894 36.89065 40.150391 37.517578 A 0.50005 0.50005 0 0 0 40.005859 37.494141 A 0.50005 0.50005 0 0 0 39.644531 37.646484 C 37.499183 38.150563 35.227147 38.424225 32.880859 38.480469 L 39.125 27.779297 z M 17.621094 36.207031 C 19.497762 37.202889 21.545515 37.973431 23.71875 38.515625 L 28.771484 47.357422 L 17.621094 36.207031 z M 46.378906 36.207031 L 35.228516 47.357422 L 40.28125 38.515625 C 42.454485 37.973431 44.502238 37.202889 46.378906 36.207031 z M 25.039062 38.8125 C 27.225126 39.257261 29.5162 39.489933 31.869141 39.498047 A 0.50005 0.50005 0 0 0 31.998047 39.513672 A 0.50005 0.50005 0 0 0 32.136719 39.498047 C 34.487598 39.489577 36.776699 39.25689 38.960938 38.8125 L 32.542969 50.042969 L 32 50.585938 L 31.457031 50.042969 L 25.039062 38.8125 z "
     id="path3834" />
</svg>

<svg xmlns="http://www.w3.org/2000/svg" viewBox="0 0 64 64"><g color="#000"><path d="m0 4v30 28l2 2h30 30l2-2v-28-30h-32-32" fill="#3b577a"/><path d="m2 0l-2 1v3h32 32v-3l-2-1h-30-30" fill="#668cbb"/></g><path d="m0 3v3l2-2" fill="#729bcd"/><path d="m64 6l-2-2 2-1" fill="#4f6f97"/><path d="m32 15.559c-4.259 0-9.424.223-13.5 2.576-4.587 2.648-8.5 7.241-8.5 12.865a1.0001 1.0001 0 0 0 .292969 .707031l20.857 20.857a1.0001 1.0001 0 0 0 .855468 .449219 1.0001 1.0001 0 0 0 .001953 0 1.0001 1.0001 0 0 0 .001954 0 1.0001 1.0001 0 0 0 .003906 0 1.0001 1.0001 0 0 0 .839844 -.453125l20.854-20.854a1.0001 1.0001 0 0 0 .292969 -.707031c0-5.624-3.913-10.217-8.5-12.865-4.054-2.341-9.184-2.572-13.43-2.574a1.0001 1.0001 0 0 0 -.070312 -.001953m0 2c3.771 0 8.08.261 11.443 1.785.423.24.796.488 1.092.742.663.57.965 1.127.965 1.664 0 .537-.302 1.094-.965 1.664-.663.57-1.666 1.119-2.912 1.58-2.492.922-5.947 1.506-9.623 1.506-3.676 0-7.131-.584-9.623-1.506-1.246-.461-2.25-1.01-2.912-1.58-.663-.57-.965-1.127-.965-1.664 0-.537.302-1.094.965-1.664.296-.255.669-.502 1.092-.742 3.36-1.525 7.672-1.785 11.443-1.785m-14.615 3.762c-1.204 3.876-1.45 8.214-1.789 12.461-1.312-.942-2.495-2.024-3.523-3.246.178-3.652 2.351-6.886 5.312-9.215m29.23 0c2.961 2.329 5.135 5.563 5.313 9.215-1.028 1.222-2.211 2.304-3.523 3.246-.339-4.247-.585-8.585-1.789-12.461m-28.693 1.818c.225.37.523.717.891 1.033.797.686 1.895 1.271 3.217 1.76.781.289 1.649.54 2.57.756l-7.992 7.105c.294-3.666.521-7.342 1.314-10.654m28.16 0c.793 3.312 1.02 6.988 1.314 10.654l-7.992-7.105c.922-.216 1.789-.467 2.57-.756 1.322-.489 2.42-1.074 3.217-1.76.367-.316.666-.663.891-1.033m-20.564 3.748c1.976.391 4.186.613 6.486.613a.50005 .50005 0 0 0 .050781 -.001953c2.282-.003 4.474-.223 6.436-.611l-6.486 11.121-6.486-11.121m-.639.893l6.244 10.701c-2.346-.056-4.618-.33-6.764-.834a.50005 .50005 0 0 0 -.376953 -.152343 .50005 .50005 0 0 0 -.128907 .021484c-2.469-.627-4.761-1.555-6.801-2.781l7.826-6.955m14.25 0l7.826 6.955c-2.04 1.226-4.331 2.156-6.801 2.783a.50005 .50005 0 0 0 -.144532 -.023437 .50005 .50005 0 0 0 -.361328 .152343c-2.145.504-4.417.778-6.764.834l6.244-10.701m-21.504 8.428c1.877.996 3.924 1.766 6.098 2.309l5.05 8.842-11.15-11.15m28.758 0l-11.15 11.15 5.05-8.842c2.173-.542 4.221-1.313 6.098-2.309m-21.34 2.605c2.186.445 4.477.677 6.83.686a.50005 .50005 0 0 0 .128906 .015625 .50005 .50005 0 0 0 .138672 -.015625c2.351-.008 4.64-.241 6.824-.686l-6.418 11.23-.543.543-.543-.543-6.418-11.23" shape-rendering="auto" mix-blend-mode="normal" color-interpolation-filters="linearRGB" isolation="auto" white-space="normal" fill="#d7ebfa" solid-opacity="1" image-rendering="auto" solid-color="#000000" color="#000" color-rendering="auto" shape-padding="0" color-interpolation="sRGB"/></svg>
